resources/svg/in-ear-headphones.svg

<svg width="15" height="15" viewBox="0 0 15 15" fill="none" xmlns="http://www.w3.org/2000/svg">
<path d="M6 1.65385C6 0.740453 5.25955 0 4.34615 0H3.5C1.567 0 0 1.567 0 3.5V13H1V15H2V13H3V7H4C5.10457 7 6 6.10457 6 5V1.65385Z" fill="black"/>
<path d="M10.6538 0C9.74045 0 9 0.740453 9 1.65385V5C9 6.10457 9.89543 7 11 7H12V13H13V15H14V13H15V3.5C15 1.567 13.433 0 11.5 0H10.6538Z" fill="black"/>
</svg>

<svg viewBox="0 0 15 15" fill="none" xmlns="http://www.w3.org/2000/svg" fill="currentColor"><path d="M6 1.654C6 .74 5.26 0 4.346 0H3.5A3.5 3.5 0 000 3.5V13h1v2h1v-2h1V7h1a2 2 0 002-2V1.654zM10.654 0C9.74 0 9 .74 9 1.654V5a2 2 0 002 2h1v6h1v2h1v-2h1V3.5A3.5 3.5 0 0011.5 0h-.846z" fill="currentColor"/></svg>
